X: 767
T: Firkat-i Cânân ile
C: Civan Ağa
O: Turkey
F: http://compmusic.upf.edu/node/140
N: huseyni--sarki--agiraksak--firkat-i_canan--civan_aga
N: makam= huseyni
N: form= sarki
N: usul= agiraksak = 9/4
M: 9/4
L: 1/16
K: C _2/4B ^3/4f  
Q: 1/4=90
%%MIDI tuningsystem comma53
A8 z2d4e2 e8 e2=f2 e2f2 e2d2  | d2c2 d2e2 c4 d4 c2B2 B2A2 A8 B2c2  | 
w:  *  Fir kat_ i  câ  |  nân  *  *  *  *  i le  *  *  *  nâ  | 
A8-A2d4e2 e8 e2f2 g2=f2 e2d2  | e2f2 g2a2 b4 a2g2 g2f2 f2e2 e6d2 c2B2  | 
w:  *  lân  mı  ol dun   |  ey  *  *  *  *  gö *  nül   *  *  *  *  SAZ  | 
A8 z2d4e2 e8 e2=f2 e2f2 e2d2  | d2c2 d2e2 c4 d4 c2B2 B2A2 A8 B2c2  | 
w:  *  Fir kat_ i  câ  |  nân  *  *  *  *  i le  *  *  *  nâ  | 
A8-A2d4e2 e8 e2f2 g2=f2 e2d2  | e2f2 g2a2 b4 a2g2 g2f2 f2e2 e6d2 c2d2  | 
w:  *  lân  mı  ol dun   |  ey  *  *  *  *  gö *  nül   *  *  *  *  SAZ  | 
e8 z2d4e2 e8 =f3e d2e2 d2c2  | d2e2 =f2g2 e2d2 d2c2 c2B2 B2A2 A8 B2c2  | 
w:  *  Â teş_ i  hic  |  rân  *  *  *  *  *  i *  le  *  *  *  sû  | 
B3A G6G4A2 A4 a4 a2g2 =f2e2 d4  | \
w:  *  *  *  zân  mı  ol *  dun   | 
c2BA B2c2 d2e2 d2c2 c2B2 B2A2 A6d2 c2d2  | 
w:  ey  *  *  *  *  *  *  gö *  nül   *  *  *  *  SAZ  | 
e8 z2d4e2 e8 =f3e d2e2 d2c2  | d2e2 =f2g2 e2d2 d2c2 c2B2 B2A2 A8 B2c2  | 
w:  *  Â teş_ i  hic  |  rân  *  *  *  *  *  i *  le  *  *  *  sû  | 
B3A G6G4A2 A4 a4 a2g2 =f2e2 d4  | \
w:  *  *  *  zân  mı  ol *  dun   | 
c2BA B2c2 d2e2 d2c2 c2B2 B2A2 A6g2 f2g2  | 
w:  ey  *  *  *  *  *  *  gö *  nül   *  *  *  *  SAZ  | 
a8 z2g4a2 a8 b4 a4 a2b2  | a2g4f4a4b2 a2g4f2 e2f2 g4 f2e2  | 
w:  *  Yâr_ i le  dil  |  *  *  *  şâd  i ken  *  *  gir  | 
e8-e2c'4c'2 c'2b4a2 a2g2 =f2e2 d4  | \
w:  *  yân  mı  ol *  *  dun   | 
e2f2 g2a2 b4 a2g2 g2f2 f2e2 e6g2 f2g2  | 
w:  ey  *  *  *  *  gö *  nül   *  *  *  *  SAZ  | 
a8 z2g4a2 a8 b4 a4 a2b2  | a2g4f4a4b2 a2g4f2 e2f2 g4 f2e2  | 
w:  *  Yâr_ i le  dil  |  *  *  *  şâd  i ken  *  *  gir  | 
e8-e2c'4c'2 c'2b4a2 a2g2 =f2e2 d4  | \
w:  *  yân  mı  ol *  *  dun   | 
e2f2 g2a2 b4 a2g2 g2f2 f2e2 e6d2 c2d2  | 
w:  ey  *  *  *  *  gö *  nül   *  *  *  *  SAZ  | 
e8 z2d4e2 e8 =f3e d2e2 d2c2  | d2e2 =f2g2 e2d2 d2c2 c2B2 B2A2 A8 B2c2  | 
w:  *  Â teş_ i  hic  |  rân  *  *  *  *  *  i *  le  *  *  *  sû  | 
B3A G6G4A2 A4 a4 a2g2 =f2e2 d4  | \
w:  *  *  *  zân  mı  ol *  dun   | 
c2BA B2c2 d2e2 d2c2 c2B2 B2A2 A6d2 c2d2  | 
w:  ey  *  *  *  *  *  *  gö *  nül   *  *  *  *  SAZ  | 
e8 z2d4e2 e8 =f3e d2e2 d2c2  | d2e2 =f2g2 e2d2 d2c2 c2B2 B2A2 A8 B2c2  | 
w:  *  Â teş_ i  hic  |  rân  *  *  *  *  *  i *  le  *  *  *  sû  | 
B3A G6G4A2 A4 a4 a2g2 =f2e2 d4  | \
w:  *  *  *  zân  mı  ol *  dun   | 
c2BA B2c2 d2e2 d2c2 c2B2 B2A2 A6|
w:  ey  *  *  *  *  *  *  gö *  nül    | 


